X:108
T:Julia Delaney
C:Trad, Ir. Fr. 
Z:From the playing of Josie Solseng of Olympia, Wash.
M:4/4
L:1/8
%% Q:1/2=112
K:Dm 
 |: "Dm"dcAG F2DF | "C"E2CE F2 D2 | "Dm"dcAG FDFG | "Am"Add^c "C"defe | 
 | "Dm"dcAG F2DF | "C"EDCE FED2 | "Bb"dcAG FDFG |1 "C"Add^c d4 :|2 "C"Add^c d2 de || 
 |: "Dm"f2fe fagf | "C"ecgc acgc | "Bb"f2fe fagf | "Am"edc_B "C"Adde |
 | "Dm"f2fe fagf | "C"ecgc acge | "F"fedf "C"edc_B |1 "Am"Add^c "A"d2 de :|2 "Am"Add^c "A"d4 ||
%%newpage
%%text
%%text
%%text
%%text
